static/assets/images/networks/fraxtal.svg

<svg width="256" height="256" viewBox="0 0 256 256" fill="none" xmlns="http://www.w3.org/2000/svg">
<path d="M128 256C198.692 256 256 198.692 256 128C256 57.3075 198.692 0 128 0C57.3075 0 0 57.3075 0 128C0 198.692 57.3075 256 128 256Z" fill="black"/>
<path d="M194.736 84.516C193.022 78.9904 189.986 73.965 185.891 69.8746C181.797 65.7842 176.765 62.7521 171.234 61.0405V36H153.411V60.258C147.058 61.6441 141.243 64.8375 136.666 69.4526L124.72 81.2881C123.031 82.9743 122.083 85.2614 122.083 87.646C122.083 90.0307 123.031 92.3178 124.72 94.004C126.408 95.6902 128.697 96.6375 131.085 96.6375C133.472 96.6375 135.762 95.6902 137.45 94.004L149.299 82.0706C152.432 78.9406 156.545 77.2777 161.049 77.3755C165.652 77.3755 169.961 79.3318 173.29 82.5597C179.949 89.3089 180.145 99.9707 173.78 106.426L148.711 131.467C147.105 133.012 145.21 134.225 143.134 135.036C141.058 135.848 138.842 136.242 136.614 136.197C134.385 136.151 132.187 135.667 130.146 134.771C128.105 133.876 126.261 132.587 124.72 130.978C123.884 130.149 122.893 129.493 121.803 129.047C120.713 128.602 119.546 128.374 118.369 128.379C117.191 128.383 116.026 128.62 114.94 129.074C113.854 129.528 112.868 130.192 112.038 131.027C111.209 131.862 110.552 132.852 110.106 133.94C109.659 135.029 109.432 136.194 109.436 137.37C109.441 138.547 109.677 139.71 110.132 140.795C110.587 141.88 111.251 142.865 112.087 143.694C119.04 150.541 128.147 154.062 137.156 154.062C145.969 154.062 154.782 150.736 161.343 144.085L186.412 119.142C191.112 114.349 194.246 108.578 195.519 102.416H220V84.516H194.736Z" fill="white"/>
<path d="M118.55 161.594L106.604 173.527C103.365 176.617 99.0332 178.3 94.5557 178.208C90.0782 178.117 85.8192 176.258 82.71 173.038C81.0927 171.505 79.7943 169.668 78.8892 167.633C77.9841 165.598 77.49 163.404 77.4355 161.178C77.3809 158.951 77.7668 156.736 78.5711 154.659C79.3754 152.582 80.5822 150.684 82.1224 149.074L107.191 124.131C108.797 122.586 110.692 121.373 112.768 120.562C114.844 119.75 117.06 119.355 119.288 119.401C121.517 119.446 123.715 119.931 125.756 120.826C127.797 121.722 129.641 123.011 131.183 124.62C132.871 126.293 135.155 127.228 137.533 127.219C139.911 127.21 142.189 126.257 143.864 124.571C145.539 122.885 146.475 120.603 146.466 118.227C146.456 115.852 145.503 113.577 143.815 111.904C137.331 105.335 128.503 101.605 119.268 101.531C110.033 101.458 101.146 105.048 94.5588 111.513L69.4902 136.358C64.7898 141.151 61.7541 146.922 60.3832 153.084H36V170.984H61.1666C62.8801 176.51 65.9156 181.535 70.0106 185.625C74.1056 189.716 79.1366 192.748 84.6684 194.459V219.5H102.491V195.144C108.833 193.786 114.647 190.627 119.236 186.047L131.183 174.114C132.858 172.428 133.794 170.146 133.784 167.77C133.775 165.395 132.822 163.12 131.134 161.447C129.445 159.774 127.161 158.839 124.783 158.848C122.405 158.857 120.128 159.81 118.452 161.496L118.55 161.594Z" fill="white"/>
</svg>

<svg xmlns="http://www.w3.org/2000/svg" fill="none" viewBox="0 0 256 256"><path fill="#000" d="M128 256c70.692 0 128-57.308 128-128S198.692 0 128 0 0 57.308 0 128s57.308 128 128 128"/><path fill="#fff" d="M194.736 84.516a35.6 35.6 0 0 0-8.845-14.641 35.65 35.65 0 0 0-14.657-8.834V36h-17.823v24.258a33.7 33.7 0 0 0-16.745 9.195L124.72 81.288a8.983 8.983 0 0 0 0 12.716 9.005 9.005 0 0 0 12.73 0l11.849-11.933c3.133-3.13 7.246-4.793 11.75-4.695 4.603 0 8.912 1.956 12.241 5.184 6.659 6.749 6.855 17.41.49 23.866l-25.069 25.041a16.96 16.96 0 0 1-18.565 3.304 16.9 16.9 0 0 1-5.426-3.793 8.96 8.96 0 0 0-6.351-2.599 8.97 8.97 0 0 0-8.263 5.561 8.95 8.95 0 0 0 1.981 9.754c6.953 6.847 16.06 10.368 25.069 10.368 8.813 0 17.626-3.326 24.187-9.977l25.069-24.943c4.7-4.793 7.834-10.564 9.107-16.726H220v-17.9z"/><path fill="#fff" d="m118.55 161.594-11.946 11.933a16.95 16.95 0 0 1-12.048 4.681 16.95 16.95 0 0 1-11.846-5.17 16.92 16.92 0 0 1-5.274-11.86 16.9 16.9 0 0 1 4.686-12.104l25.069-24.943a16.94 16.94 0 0 1 12.097-4.73 16.96 16.96 0 0 1 11.895 5.219 8.97 8.97 0 0 0 12.681-.049 8.953 8.953 0 0 0-.049-12.667 34.88 34.88 0 0 0-24.547-10.373 34.88 34.88 0 0 0-24.71 9.982L69.49 136.358c-4.7 4.793-7.736 10.564-9.107 16.726H36v17.9h25.167a35.6 35.6 0 0 0 8.844 14.641 35.64 35.64 0 0 0 14.657 8.834V219.5h17.823v-24.356a33.7 33.7 0 0 0 16.745-9.097l11.947-11.933a8.95 8.95 0 0 0-.049-12.667 8.977 8.977 0 0 0-12.682.049z"/></svg>
